X:615
T:the Favourite
A:Wyresdale, Lancashire
B:H.S.J. Jackson, 1823
L:1/8
M:6/8
N:(photocopy pages turn upside down starting here)
O:England
Z:Richard Robinson 
%%TUNEURL: http://www.leeds.ac.uk/music/Info/RRTuneBk/gettune/00000e4a.html
%%ID:00000e4a
K:D
dcB A2G | F2G A3 | dcd e2d | c2c d2B |\
dcB A2G | F2G A3 | dcd e2d | c2c d3 ||
Acd e2e | g2g f3 | Acd e2e | f2f e3 |\
dcB A2G | F2G A3 | gfe d2c | e3 d2z ::
